client/graphics/settings.svg

<svg id="Layer_1" enable-background="new 0 0 24 24" height="512" viewBox="0 0 24 24" width="512" xmlns="http://www.w3.org/2000/svg"><g><path d="m13.12 24h-2.24c-.757 0-1.396-.567-1.486-1.32l-.239-1.876c-.477-.155-.937-.346-1.374-.569l-1.494 1.161c-.606.469-1.459.415-1.985-.126l-1.575-1.575c-.537-.521-.591-1.374-.122-1.979l1.161-1.495c-.224-.437-.415-.897-.569-1.374l-1.88-.239c-.75-.092-1.317-.731-1.317-1.488v-2.24c0-.757.567-1.396 1.32-1.486l1.876-.239c.155-.477.346-.937.569-1.374l-1.16-1.494c-.47-.606-.415-1.46.127-1.986l1.575-1.575c.521-.537 1.375-.59 1.979-.122l1.494 1.162c.437-.223.897-.414 1.375-.569l.239-1.88c.09-.75.729-1.317 1.486-1.317h2.24c.757 0 1.396.567 1.486 1.32l.239 1.876c.478.155.938.346 1.375.569l1.494-1.161c.607-.469 1.459-.415 1.985.127l1.575 1.575c.537.521.591 1.374.122 1.979l-1.161 1.495c.224.437.415.897.569 1.374l1.88.239c.749.091 1.316.73 1.316 1.487v2.24c0 .757-.567 1.396-1.32 1.486l-1.876.239c-.155.477-.346.937-.569 1.374l1.161 1.494c.47.606.415 1.459-.127 1.985l-1.575 1.575c-.521.537-1.375.592-1.979.122l-1.495-1.161c-.437.224-.897.415-1.374.569l-.239 1.88c-.091.75-.73 1.317-1.487 1.317zm-5.39-4.86c.083 0 .168.021.244.063.551.308 1.148.556 1.774.736.192.055.333.219.358.417l.28 2.2c.03.251.247.444.494.444h2.24c.247 0 .464-.193.493-.439l.281-2.204c.025-.198.166-.362.358-.417.626-.18 1.223-.428 1.774-.736.175-.098.393-.081.55.042l1.75 1.36c.201.156.483.143.655-.034l1.585-1.585c.181-.176.195-.458.039-.66l-1.36-1.75c-.123-.158-.14-.375-.042-.55.308-.551.556-1.148.736-1.774.055-.192.219-.333.417-.358l2.2-.28c.251-.031.444-.248.444-.495v-2.24c0-.247-.193-.464-.439-.493l-2.204-.281c-.198-.025-.362-.166-.417-.358-.18-.626-.428-1.223-.736-1.774-.098-.175-.082-.392.042-.55l1.36-1.75c.157-.202.143-.484-.033-.654l-1.585-1.585c-.175-.182-.458-.196-.66-.039l-1.75 1.36c-.159.123-.376.14-.551.042-.549-.308-1.146-.555-1.774-.736-.192-.055-.333-.219-.358-.417l-.28-2.2c-.031-.252-.248-.445-.495-.445h-2.24c-.247 0-.464.193-.493.439l-.281 2.204c-.025.198-.166.362-.358.418-.628.18-1.225.428-1.774.735-.175.099-.392.081-.551-.041l-1.75-1.36c-.202-.157-.483-.143-.654.033l-1.585 1.586c-.181.176-.195.458-.039.66l1.36 1.75c.123.158.14.375.042.55-.309.551-.556 1.148-.736 1.774-.055.192-.219.333-.417.358l-2.2.28c-.251.03-.444.247-.444.494v2.24c0 .247.193.464.439.493l2.204.281c.198.025.362.166.417.358.18.626.428 1.223.736 1.774.098.175.082.392-.042.55l-1.36 1.75c-.157.202-.143.484.033.654l1.585 1.585c.175.181.456.195.66.039l1.75-1.36c.091-.068.199-.104.308-.104z"/></g><g><path d="m12 17c-2.757 0-5-2.243-5-5s2.243-5 5-5 5 2.243 5 5-2.243 5-5 5zm0-9c-2.206 0-4 1.794-4 4s1.794 4 4 4 4-1.794 4-4-1.794-4-4-4z"/></g></svg>

<?xml version="1.0" encoding="UTF-8" standalone="no"?>
<svg
   xmlns:dc="http://purl.org/dc/elements/1.1/"
   xmlns:cc="http://creativecommons.org/ns#"
   xmlns:rdf="http://www.w3.org/1999/02/22-rdf-syntax-ns#"
   xmlns:svg="http://www.w3.org/2000/svg"
   xmlns="http://www.w3.org/2000/svg"
   xmlns:sodipodi="http://sodipodi.sourceforge.net/DTD/sodipodi-0.dtd"
   xmlns:inkscape="http://www.inkscape.org/namespaces/inkscape"
   id="Layer_1"
   enable-background="new 0 0 24 24"
   height="512"
   viewBox="0 0 24 24"
   width="512"
   version="1.1"
   sodipodi:docname="settings.svg"
   inkscape:version="1.0.2 (e86c870879, 2021-01-15)">
  <metadata
     id="metadata15">
    <rdf:RDF>
      <cc:Work
         rdf:about="">
        <dc:format>image/svg+xml</dc:format>
        <dc:type
           rdf:resource="http://purl.org/dc/dcmitype/StillImage" />
      </cc:Work>
    </rdf:RDF>
  </metadata>
  <defs
     id="defs13" />
  <sodipodi:namedview
     pagecolor="#ffffff"
     bordercolor="#666666"
     borderopacity="1"
     objecttolerance="10"
     gridtolerance="10"
     guidetolerance="10"
     inkscape:pageopacity="0"
     inkscape:pageshadow="2"
     inkscape:window-width="3840"
     inkscape:window-height="2096"
     id="namedview11"
     showgrid="false"
     inkscape:zoom="2.784233"
     inkscape:cx="185.06484"
     inkscape:cy="256"
     inkscape:window-x="0"
     inkscape:window-y="27"
     inkscape:window-maximized="1"
     inkscape:current-layer="Layer_1" />
  <g
     id="g4"
     transform="matrix(0.765,0,0,0.765,2.82,2.82)">
    <path
       d="M 13.12,24 H 10.88 C 10.123,24 9.484,23.433 9.394,22.68 L 9.155,20.804 C 8.678,20.649 8.218,20.458 7.781,20.235 L 6.287,21.396 C 5.681,21.865 4.828,21.811 4.302,21.27 L 2.727,19.695 C 2.19,19.174 2.136,18.321 2.605,17.716 L 3.766,16.221 C 3.542,15.784 3.351,15.324 3.197,14.847 L 1.317,14.608 C 0.567,14.516 0,13.877 0,13.12 V 10.88 C 0,10.123 0.567,9.484 1.32,9.394 L 3.196,9.155 C 3.351,8.678 3.542,8.218 3.765,7.781 L 2.605,6.287 C 2.135,5.681 2.19,4.827 2.732,4.301 L 4.307,2.726 C 4.828,2.189 5.682,2.136 6.286,2.604 L 7.78,3.766 C 8.217,3.543 8.677,3.352 9.155,3.197 L 9.394,1.317 C 9.484,0.567 10.123,0 10.88,0 h 2.24 c 0.757,0 1.396,0.567 1.486,1.32 l 0.239,1.876 c 0.478,0.155 0.938,0.346 1.375,0.569 l 1.494,-1.161 c 0.607,-0.469 1.459,-0.415 1.985,0.127 l 1.575,1.575 c 0.537,0.521 0.591,1.374 0.122,1.979 L 20.235,7.78 c 0.224,0.437 0.415,0.897 0.569,1.374 l 1.88,0.239 C 23.433,9.484 24,10.123 24,10.88 v 2.24 c 0,0.757 -0.567,1.396 -1.32,1.486 l -1.876,0.239 c -0.155,0.477 -0.346,0.937 -0.569,1.374 l 1.161,1.494 c 0.47,0.606 0.415,1.459 -0.127,1.985 l -1.575,1.575 c -0.521,0.537 -1.375,0.592 -1.979,0.122 L 16.22,20.234 c -0.437,0.224 -0.897,0.415 -1.374,0.569 l -0.239,1.88 C 14.516,23.433 13.877,24 13.12,24 Z M 7.73,19.14 c 0.083,0 0.168,0.021 0.244,0.063 0.551,0.308 1.148,0.556 1.774,0.736 0.192,0.055 0.333,0.219 0.358,0.417 l 0.28,2.2 C 10.416,22.807 10.633,23 10.88,23 h 2.24 c 0.247,0 0.464,-0.193 0.493,-0.439 l 0.281,-2.204 c 0.025,-0.198 0.166,-0.362 0.358,-0.417 0.626,-0.18 1.223,-0.428 1.774,-0.736 0.175,-0.098 0.393,-0.081 0.55,0.042 l 1.75,1.36 c 0.201,0.156 0.483,0.143 0.655,-0.034 l 1.585,-1.585 c 0.181,-0.176 0.195,-0.458 0.039,-0.66 l -1.36,-1.75 c -0.123,-0.158 -0.14,-0.375 -0.042,-0.55 0.308,-0.551 0.556,-1.148 0.736,-1.774 0.055,-0.192 0.219,-0.333 0.417,-0.358 l 2.2,-0.28 C 22.807,13.584 23,13.367 23,13.12 v -2.24 c 0,-0.247 -0.193,-0.464 -0.439,-0.493 L 20.357,10.106 C 20.159,10.081 19.995,9.94 19.94,9.748 19.76,9.122 19.512,8.525 19.204,7.974 19.106,7.799 19.122,7.582 19.246,7.424 l 1.36,-1.75 C 20.763,5.472 20.749,5.19 20.573,5.02 L 18.988,3.435 C 18.813,3.253 18.53,3.239 18.328,3.396 l -1.75,1.36 C 16.419,4.879 16.202,4.896 16.027,4.798 15.478,4.49 14.881,4.243 14.253,4.062 14.061,4.007 13.92,3.843 13.895,3.645 l -0.28,-2.2 C 13.584,1.193 13.367,1 13.12,1 H 10.88 C 10.633,1 10.416,1.193 10.387,1.439 L 10.106,3.643 C 10.081,3.841 9.94,4.005 9.748,4.061 9.12,4.241 8.523,4.489 7.974,4.796 7.799,4.895 7.582,4.877 7.423,4.755 L 5.673,3.395 C 5.471,3.238 5.19,3.252 5.019,3.428 L 3.434,5.014 C 3.253,5.19 3.239,5.472 3.395,5.674 l 1.36,1.75 C 4.878,7.582 4.895,7.799 4.797,7.974 4.488,8.525 4.241,9.122 4.061,9.748 4.006,9.94 3.842,10.081 3.644,10.106 l -2.2,0.28 C 1.193,10.416 1,10.633 1,10.88 v 2.24 c 0,0.247 0.193,0.464 0.439,0.493 l 2.204,0.281 c 0.198,0.025 0.362,0.166 0.417,0.358 0.18,0.626 0.428,1.223 0.736,1.774 0.098,0.175 0.082,0.392 -0.042,0.55 l -1.36,1.75 C 3.237,18.528 3.251,18.81 3.427,18.98 l 1.585,1.585 c 0.175,0.181 0.456,0.195 0.66,0.039 l 1.75,-1.36 C 7.513,19.176 7.621,19.14 7.73,19.14 Z"
       id="path2" />
  </g>
  <g
     id="g8"
     transform="matrix(0.765,0,0,0.765,2.82,2.82)">
    <path
       d="M 12,17 C 9.243,17 7,14.757 7,12 7,9.243 9.243,7 12,7 c 2.757,0 5,2.243 5,5 0,2.757 -2.243,5 -5,5 z m 0,-9 c -2.206,0 -4,1.794 -4,4 0,2.206 1.794,4 4,4 2.206,0 4,-1.794 4,-4 0,-2.206 -1.794,-4 -4,-4 z"
       id="path6" />
  </g>
</svg>
